assets/awscloudwancorenetworkedge/original.svg

<svg height="48" viewBox="0 0 48 48" width="48" xmlns="http://www.w3.org/2000/svg"><path d="m42 26c-1.103 0-2-.897-2-2s.897-2 2-2 2 .897 2 2-.897 2-2 2m-17 10.949v-6.029a7.005 7.005 0 0 0 5.92-5.92h6.029c-.488 6.37-5.579 11.461-11.949 11.949m-1 7.051c-1.103 0-2-.897-2-2s.897-2 2-2 2 .897 2 2-.897 2-2 2m-12.949-19h6.029a7.005 7.005 0 0 0 5.92 5.92v6.029c-6.37-.488-11.461-5.579-11.949-11.949m11.949-13.949v6.029a7.005 7.005 0 0 0 -5.92 5.92h-6.029c.488-6.37 5.579-11.461 11.949-11.949m1-7.051c1.103 0 2 .897 2 2s-.897 2-2 2-2-.897-2-2 .897-2 2-2m0 25c-2.757 0-5-2.243-5-5s2.243-5 5-5 5 2.243 5 5-2.243 5-5 5m12.949-6h-6.029a7.005 7.005 0 0 0 -5.92-5.92v-6.029c6.37.488 11.461 5.579 11.949 11.949m-30.949 3c-1.103 0-2-.897-2-2s.897-2 2-2 2 .897 2 2-.897 2-2 2m36-6a3.99 3.99 0 0 0 -3.206 1.631c-1.017-6.373-6.052-11.408-12.425-12.425a3.99 3.99 0 0 0 1.631-3.206c0-2.206-1.794-4-4-4s-4 1.794-4 4c0 1.316.647 2.476 1.631 3.206-6.373 1.017-11.408 6.052-12.425 12.425a3.99 3.99 0 0 0 -3.206-1.631c-2.206 0-4 1.794-4 4s1.794 4 4 4a3.99 3.99 0 0 0 3.206-1.631c1.017 6.373 6.052 11.408 12.425 12.425a3.99 3.99 0 0 0 -1.631 3.206c0 2.206 1.794 4 4 4s4-1.794 4-4a3.99 3.99 0 0 0 -1.631-3.206c6.373-1.017 11.408-6.052 12.425-12.425a3.99 3.99 0 0 0 3.206 1.631c2.206 0 4-1.794 4-4s-1.794-4-4-4" fill="#8c4fff" fill-rule="evenodd"/></svg>

<svg xmlns="http://www.w3.org/2000/svg" width="48" height="48" viewBox="0 0 48 48"><path fill="#8c4fff" fill-rule="evenodd" d="M42 26c-1.103 0-2-.897-2-2s.897-2 2-2 2 .897 2 2-.897 2-2 2M25 36.949V30.92A7.005 7.005 0 0 0 30.92 25h6.029C36.461 31.37 31.37 36.461 25 36.949M24 44c-1.103 0-2-.897-2-2s.897-2 2-2 2 .897 2 2-.897 2-2 2M11.051 25h6.029A7.005 7.005 0 0 0 23 30.92v6.029C16.63 36.461 11.539 31.37 11.051 25M23 11.051v6.029A7.005 7.005 0 0 0 17.08 23h-6.029C11.539 16.63 16.63 11.539 23 11.051M24 4c1.103 0 2 .897 2 2s-.897 2-2 2-2-.897-2-2 .897-2 2-2m0 25c-2.757 0-5-2.243-5-5s2.243-5 5-5 5 2.243 5 5-2.243 5-5 5m12.949-6H30.92A7.005 7.005 0 0 0 25 17.08v-6.029c6.37.488 11.461 5.579 11.949 11.949M6 26c-1.103 0-2-.897-2-2s.897-2 2-2 2 .897 2 2-.897 2-2 2m36-6a3.99 3.99 0 0 0-3.206 1.631c-1.017-6.373-6.052-11.408-12.425-12.425A3.99 3.99 0 0 0 28 6c0-2.206-1.794-4-4-4s-4 1.794-4 4c0 1.316.647 2.476 1.631 3.206-6.373 1.017-11.408 6.052-12.425 12.425A3.99 3.99 0 0 0 6 20c-2.206 0-4 1.794-4 4s1.794 4 4 4a3.99 3.99 0 0 0 3.206-1.631c1.017 6.373 6.052 11.408 12.425 12.425A3.99 3.99 0 0 0 20 42c0 2.206 1.794 4 4 4s4-1.794 4-4a3.99 3.99 0 0 0-1.631-3.206c6.373-1.017 11.408-6.052 12.425-12.425A3.99 3.99 0 0 0 42 28c2.206 0 4-1.794 4-4s-1.794-4-4-4"/></svg>
